X:23
T:Les moutons
Z:Jack Campin, 2014
F:http://www.campin.me.uk/Music/YoupNannetteD.abc
S:p31, p1000220.jpg
M:2/4
L:1/8
Q:1/4=120
K:G
d>c BG|A>c BA|d>c BG|A2  A2:|
B>c BA|BG  E2|A>F GE|A>F GE |
B>c BA|BG  E2|A>F GA|BA  G2:|

